; generated by PrusaSlicer 2.5.0+win64 on 2022-12-25 at 13:30:36 UTC


;
;

;
;
; TODO: check the size of the extruder and the y-bar clearance. Optimize & test supports.

; external perimeters extrusion width = 0.42mm
; perimeters extrusion width = 0.44mm
; infill extrusion width = 0.44mm
; solid infill extrusion width = 0.44mm
; top infill extrusion width = 0.44mm
; support material extrusion width = 0.44mm
; first layer extrusion width = 0.56mm

M107
;TYPE:Custom
M104 S0 ; Stops PS/SS from sending temp waits separately
M140 S0
PRINT_START BED=115 HOTEND=260
G21 ; set units to millimeters
G90 ; use absolute coordinates
M83 ; use relative distances for extrusion
; Filament gcode

G92 E0 ;Reset Extruder
G1 Z2.0 F3000 ;Move Z Axis up
G1 X20 Y5.1 Z0.15 F5000.0 ;Move to start position
G1 X200.0 Y5.1 Z0.2 F1500.0 E25 ;Draw the first line
G1 X200.0 Y5.4 Z0.2 F5000.0 ;Move to side a little
G1 X20 Y5.4 Z0.28 F1500.0 E30 ;Draw the second line
G1 Z0.4 F3000; Move Z Axis Up
G1 X50 F1500; Wipe to the right
G92 E0 ;Reset Extruder
M107
;LAYER_CHANGE
;Z:0.2
;HEIGHT:0.2
;BEFORE_LAYER_CHANGE
;0.2
G92 E0

G1 Z.2 F15000
;AFTER_LAYER_CHANGE
;0.2
G1 E-.75 F2400
G1 X122.95 Y109.195 F15000
G1 E.75 F1800
M204 S2500
;TYPE:Skirt/Brim
;WIDTH:0.56
G1 F1500
G1 X124.347 Y107.798 E.08495
G1 X126.016 Y106.689 E.08615
G1 X127.931 Y106.314 E.0839
G1 X150.532 Y106.314 E.97177
G1 X152.496 Y106.71 E.08615
G1 X154.116 Y107.798 E.0839
G1 X155.513 Y109.195 E.08495
G1 X156.622 Y110.864 E.08615
G1 X156.998 Y112.779 E.0839
G1 X156.998 Y135.381 E.97177
G1 X156.602 Y137.345 E.08615
G1 X155.513 Y138.965 E.0839
G1 X154.116 Y140.362 E.08495
G1 X152.447 Y141.471 E.08615
G1 X150.532 Y141.846 E.0839
G1 X127.931 Y141.846 E.97177
G1 X125.966 Y141.45 E.08615
G1 X124.347 Y140.362 E.0839
G1 X122.95 Y138.965 E.08495
G1 X121.841 Y137.296 E.08615
G1 X121.465 Y135.381 E.0839
G1 X121.465 Y112.779 E.97177
G1 X121.861 Y110.815 E.08615
G1 X122.916 Y109.245 E.08132
M204 S4500
G1 X123.315 Y109.561 F15000
M204 S2500
G1 F1500
G1 X124.712 Y108.164 E.08495
G1 X126.304 Y107.131 E.08159
G1 X127.931 Y106.831 E.0711
G1 X150.532 Y106.831 E.97177
G1 X152.388 Y107.226 E.08159
G1 X153.751 Y108.164 E.0711
G1 X155.148 Y109.561 E.08495
G1 X156.18 Y111.153 E.08159
G1 X156.481 Y112.779 E.0711
G1 X156.481 Y135.381 E.97177
G1 X156.085 Y137.237 E.08159
G1 X155.148 Y138.599 E.0711
G1 X153.751 Y139.996 E.08495
G1 X152.159 Y141.029 E.08159
G1 X150.532 Y141.329 E.0711
G1 X127.931 Y141.329 E.97177
G1 X126.075 Y140.934 E.08159
G1 X124.712 Y139.996 E.0711
G1 X123.315 Y138.599 E.08495
G1 X122.283 Y137.007 E.08159
G1 X121.982 Y135.381 E.0711
G1 X121.982 Y112.779 E.97177
G1 X122.378 Y110.923 E.08159
G1 X123.281 Y109.61 E.06852
M204 S4500
G1 X123.681 Y109.927 F15000
M204 S2500
G1 F1500
G1 X125.078 Y108.529 E.08495
G1 X126.588 Y107.578 E.07676
G1 X127.931 Y107.348 E.05855
G1 X150.532 Y107.348 E.97177
G1 X152.273 Y107.743 E.07676
G1 X153.385 Y108.529 E.05855
G1 X154.782 Y109.927 E.08495
G1 X155.734 Y111.437 E.07676
G1 X155.964 Y112.779 E.05855
G1 X155.964 Y135.381 E.97177
G1 X155.569 Y137.122 E.07676
G1 X154.782 Y138.234 E.05855
G1 X153.385 Y139.631 E.08495
G1 X151.874 Y140.582 E.07676
G1 X150.532 Y140.812 E.05855
G1 X127.931 Y140.812 E.97177
G1 X126.189 Y140.417 E.07676
G1 X125.078 Y139.631 E.05855
G1 X123.681 Y138.234 E.08495
G1 X122.729 Y136.723 E.07676
G1 X122.499 Y135.381 E.05855
G1 X122.499 Y112.779 E.97177
G1 X122.894 Y111.038 E.07676
G1 X123.646 Y109.975 E.05597
M204 S4500
G1 X124.046 Y110.292 F15000
M204 S2500
G1 F1500
G1 X125.444 Y108.895 E.08495
G1 X126.867 Y108.03 E.07161
G1 X127.931 Y107.865 E.04629
G1 X150.532 Y107.865 E.97177
G1 X152.15 Y108.259 E.07161
G1 X153.019 Y108.895 E.04629
G1 X154.416 Y110.292 E.08495
G1 X155.282 Y111.715 E.07161
G1 X155.447 Y112.779 E.04629
G1 X155.447 Y135.381 E.97177
G1 X155.052 Y136.999 E.07161
G1 X154.416 Y137.868 E.04629
G1 X153.019 Y139.265 E.08495
G1 X151.596 Y140.13 E.07161
G1 X150.532 Y140.295 E.04629
G1 X127.931 Y140.295 E.97177
G1 X126.312 Y139.901 E.07161
G1 X125.444 Y139.265 E.04629
G1 X124.046 Y137.868 E.08495
G1 X123.181 Y136.445 E.07161
G1 X123.016 Y135.381 E.04629
G1 X123.016 Y112.779 E.97177
G1 X123.411 Y111.161 E.07161
G1 X124.011 Y110.341 E.04371
M204 S4500
G1 E-.75 F2400
G1 X139.541 Y124.08 F15000
G1 E.75 F1800
M204 S2500
;TYPE:Support material
G1 F1500
G1 X139.231 Y124.39 E.01882
G1 X138.922 Y124.08 E.01882
G1 X139.231 Y123.771 E.01882
G1 X139.486 Y124.025 E.01548
M204 S4500
G1 E-.75 F2400
G1 X150.532 Y112.779 F15000
G1 E.75 F1800
M204 S2500
G1 F1500
G1 X151.929 Y112.779 E.06007
G1 X151.929 Y135.381 E.97177
G1 X150.532 Y135.381 E.06007
G1 X150.532 Y136.778 E.06007
G1 X127.931 Y136.778 E.97177
G1 X127.931 Y135.381 E.06007
G1 X126.533 Y135.381 E.06007
G1 X126.533 Y112.779 E.97177
G1 X127.931 Y112.779 E.06007
G1 X127.931 Y111.382 E.06007
G1 X150.532 Y111.382 E.97177
G1 X150.532 Y112.702 E.05673
M204 S4500
G1 X139.059 Y120.454 F15000
M204 S2500
G1 F1500
G1 X138.668 Y120.494 E.0169
G1 X138.283 Y120.576 E.0169
G1 X137.866 Y120.717 E.01895
G1 X137.51 Y120.884 E.0169
G1 X137.214 Y121.062 E.01486
G1 X136.9 Y121.298 E.0169
G1 X136.612 Y121.566 E.0169
G1 X136.356 Y121.864 E.0169
G1 X136.133 Y122.188 E.0169
G1 X135.947 Y122.534 E.01689
G1 X135.799 Y122.898 E.0169
G1 X135.691 Y123.276 E.01689
G1 X135.63 Y123.632 E.01553
G1 X135.601 Y124.104 E.02031
G1 X135.62 Y124.449 E.01485
G1 X135.681 Y124.837 E.0169
G1 X135.784 Y125.216 E.0169
G1 X135.927 Y125.583 E.0169
G1 X136.109 Y125.931 E.0169
G1 X136.327 Y126.258 E.01689
G1 X136.58 Y126.559 E.0169
G1 X136.84 Y126.809 E.01553
G1 X137.214 Y127.098 E.02031
G1 X137.552 Y127.298 E.0169
G1 X137.91 Y127.461 E.0169
G1 X138.283 Y127.584 E.0169
G1 X138.621 Y127.658 E.01485
G1 X139.011 Y127.703 E.0169
G1 X139.404 Y127.706 E.0169
G1 X139.842 Y127.658 E.01895
G1 X140.226 Y127.571 E.0169
G1 X140.597 Y127.443 E.0169
G1 X140.953 Y127.276 E.0169
G1 X141.288 Y127.071 E.0169
G1 X141.6 Y126.831 E.0169
G1 X141.883 Y126.559 E.0169
G1 X142.136 Y126.258 E.0169
G1 X142.354 Y125.931 E.0169
G1 X142.536 Y125.583 E.0169
G1 X142.664 Y125.262 E.01485
G1 X142.782 Y124.837 E.01895
G1 X142.843 Y124.449 E.0169
G1 X142.861 Y124.056 E.0169
G1 X142.838 Y123.664 E.0169
G1 X142.782 Y123.323 E.01485
G1 X142.679 Y122.944 E.0169
G1 X142.536 Y122.577 E.0169
G1 X142.33 Y122.188 E.01895
G1 X142.107 Y121.864 E.0169
G1 X141.85 Y121.566 E.0169
G1 X141.563 Y121.298 E.0169
G1 X141.249 Y121.062 E.0169
G1 X140.953 Y120.884 E.01486
G1 X140.597 Y120.717 E.0169
G1 X140.226 Y120.589 E.0169
G1 X139.842 Y120.502 E.0169
G1 X139.452 Y120.457 E.0169
G1 X139.136 Y120.454 E.01356
M204 S4500
G1 E-.75 F2400
G1 X151.297 Y135.148 F15000
G1 E.75 F1800
M204 S2500
G1 F1500
G1 X151.297 Y113.244 E.94176
G1 X150.722 Y113.244 E.0247
G1 X150.722 Y134.916 E.93176
G1 X150.148 Y134.916 E.0247
G1 X150.148 Y113.244 E.93176
G1 X150.067 Y113.244 E.00346
G1 X150.067 Y111.847 E.06007
G1 X149.573 Y111.847 E.02124
G1 X149.573 Y136.313 E1.05189
G1 X148.998 Y136.313 E.0247
G1 X148.998 Y111.847 E1.05189
G1 X148.424 Y111.847 E.0247
G1 X148.424 Y136.313 E1.05189
G1 X147.849 Y136.313 E.0247
G1 X147.849 Y111.847 E1.05189
G1 X147.275 Y111.847 E.0247
G1 X147.275 Y136.313 E1.05189
G1 X146.7 Y136.313 E.0247
G1 X146.7 Y111.847 E1.05189
G1 X146.126 Y111.847 E.0247
G1 X146.126 Y136.313 E1.05189
G1 X145.551 Y136.313 E.0247
G1 X145.551 Y111.847 E1.05189
G1 X144.977 Y111.847 E.0247
G1 X144.977 Y136.313 E1.05189
G1 X144.402 Y136.313 E.0247
G1 X144.402 Y111.847 E1.05189
G1 X143.828 Y111.847 E.0247
G1 X143.828 Y136.313 E1.05189
G1 X143.253 Y136.313 E.0247
G1 X143.253 Y111.847 E1.05189
G1 X142.679 Y111.847 E.0247
G1 X142.679 Y121.874 E.43109
G1 X142.47 Y121.573 E.01576
G1 X142.104 Y121.166 E.02352
G1 X142.104 Y111.847 E.40064
G1 X141.53 Y111.847 E.0247
G1 X141.53 Y120.69 E.3802
G1 X141.182 Y120.479 E.0175
G1 X140.955 Y120.369 E.01083
G1 X140.955 Y111.847 E.36641
G1 X140.381 Y111.847 E.0247
G1 X140.381 Y120.15 E.35697
G1 X139.806 Y120.027 E.02526
G1 X139.806 Y111.847 E.35169
G1 X139.231 Y111.847 E.0247
G1 X139.231 Y119.989 E.35004
G1 X138.973 Y119.993 E.0111
G1 X138.657 Y120.027 E.01368
G1 X138.657 Y111.847 E.35169
G1 X138.082 Y111.847 E.0247
G1 X138.082 Y120.15 E.35697
G1 X137.749 Y120.262 E.01511
G1 X137.508 Y120.369 E.01136
G1 X137.508 Y111.847 E.36641
G1 X136.933 Y111.847 E.0247
G1 X136.933 Y120.69 E.3802
G1 X136.608 Y120.935 E.01751
G1 X136.359 Y121.166 E.01459
G1 X136.359 Y111.847 E.40064
G1 X135.784 Y111.847 E.0247
G1 X135.784 Y122.344 E.45132
M204 S4500
G1 E-.75 F2400
G1 X142.679 Y136.545 F15000
G1 E.75 F1800
M204 S2500
G1 F1500
G1 X142.679 Y126.286 E.44109
G1 X142.47 Y126.587 E.01576
G1 X142.104 Y126.994 E.02352
G1 X142.104 Y136.313 E.40064
G1 X141.53 Y136.313 E.0247
G1 X141.53 Y127.47 E.3802
G1 X141.182 Y127.681 E.01749
G1 X140.955 Y127.791 E.01083
G1 X140.955 Y136.313 E.36641
G1 X140.381 Y136.313 E.0247
G1 X140.381 Y128.01 E.35697
G1 X139.806 Y128.133 E.02526
G1 X139.806 Y136.313 E.35169
G1 X139.231 Y136.313 E.0247
G1 X139.231 Y128.171 E.35004
G1 X138.973 Y128.167 E.0111
G1 X138.657 Y128.133 E.01368
G1 X138.657 Y136.313 E.35169
G1 X138.082 Y136.313 E.0247
G1 X138.082 Y128.01 E.35697
G1 X137.749 Y127.898 E.0151
G1 X137.508 Y127.791 E.01137
G1 X137.508 Y136.313 E.36641
G1 X136.933 Y136.313 E.0247
G1 X136.933 Y127.47 E.3802
G1 X136.608 Y127.225 E.01751
G1 X136.359 Y126.994 E.0146
G1 X136.359 Y136.313 E.40064
G1 X135.784 Y136.313 E.0247
G1 X135.784 Y125.816 E.45132
M204 S4500
G1 X135.21 Y136.545 F15000
M204 S2500
G1 F1500
G1 X135.21 Y111.847 E1.0619
G1 X134.635 Y111.847 E.0247
G1 X134.635 Y136.313 E1.05189
G1 X134.061 Y136.313 E.0247
G1 X134.061 Y111.847 E1.05189
G1 X133.486 Y111.847 E.0247
G1 X133.486 Y136.313 E1.05189
G1 X132.912 Y136.313 E.0247
G1 X132.912 Y111.847 E1.05189
G1 X132.337 Y111.847 E.0247
G1 X132.337 Y136.313 E1.05189
G1 X131.763 Y136.313 E.0247
G1 X131.763 Y111.847 E1.05189
G1 X131.188 Y111.847 E.0247
G1 X131.188 Y136.313 E1.05189
G1 X130.613 Y136.313 E.0247
G1 X130.613 Y111.847 E1.05189
G1 X130.039 Y111.847 E.0247
G1 X130.039 Y136.313 E1.05189
G1 X129.464 Y136.313 E.0247
G1 X129.464 Y111.847 E1.05189
G1 X128.89 Y111.847 E.0247
G1 X128.89 Y136.313 E1.05189
G1 X128.396 Y136.313 E.02124
G1 X128.396 Y134.916 E.06007
G1 X128.315 Y134.916 E.00346
G1 X128.315 Y113.244 E.93176
G1 X127.741 Y113.244 E.0247
G1 X127.741 Y134.916 E.93176
G1 X127.166 Y134.916 E.0247
G1 X127.166 Y113.012 E.94176
M204 S4500
G1 E-.75 F2400
G1 X141.765 Y123.268 F15000
G1 E.75 F1800
M204 S2500
;TYPE:External perimeter
;WIDTH:0.38292
G1 F1500
G1 X141.823 Y123.798 E.01508
G1 X141.823 Y124.362 E.01594
G1 X141.762 Y124.903 E.01539
M204 S4500
G1 X141.336 Y125.208 F15000
M204 S2500
;WIDTH:0.701567
G1 F1500
G1 X141.286 Y125.316 E.00653
G1 X140.972 Y125.729 E.02839
G1 X140.588 Y126.054 E.02756
G1 X140.359 Y126.18 E.01429
G1 X140.359 Y125.208 E.05322
G1 X141.276 Y125.208 E.05018
M204 S4500
G1 X141.273 Y125.309 F15000
G1 X140.055 Y126.605
M204 S2500
;WIDTH:0.38292
G1 F1500
G1 X139.655 Y126.662 E.01144
G1 X139.091 Y126.678 E.01596
G1 X138.411 Y126.608 E.01933
M204 S4500
G1 X138.105 Y126.197 F15000
M204 S2500
;WIDTH:0.699064
G1 F1500
G1 X137.702 Y125.924 E.02656
G1 X137.337 Y125.547 E.0286
G1 X137.126 Y125.207 E.02186
G1 X138.105 Y125.207 E.05338
G1 X138.105 Y126.137 E.05077
M204 S4500
G1 X137.789 Y125.951 F15000
G1 X136.709 Y124.906
M204 S2500
;WIDTH:0.38292
G1 F1500
G1 X136.632 Y124.08 E.02346
G1 X136.662 Y123.515 E.01601
G1 X136.705 Y123.263 E.00721
M204 S4500
G1 X137.126 Y122.953 F15000
M204 S2500
;WIDTH:0.699064
G1 F1500
G1 X137.322 Y122.629 E.02069
G1 X137.679 Y122.252 E.0283
G1 X138.105 Y121.963 E.0281
G1 X138.105 Y122.953 E.05404
G1 X137.186 Y122.953 E.05011
M204 S4500
G1 X137.347 Y122.645 F15000
G1 X138.401 Y121.557
M204 S2500
;WIDTH:0.38292
G1 F1500
G1 X139.091 Y121.482 E.01961
G1 X139.655 Y121.498 E.01596
G1 X140.046 Y121.552 E.01116
M204 S4500
G1 X140.359 Y121.981 F15000
M204 S2500
;WIDTH:0.701566
G1 F1500
G1 X140.588 Y122.106 E.01429
G1 X140.992 Y122.458 E.02935
G1 X141.336 Y122.952 E.03296
G1 X140.359 Y122.952 E.05347
G1 X140.359 Y122.041 E.04993
M204 S4500
G1 X140.575 Y122.127 F15000
;LAYER_CHANGE
;Z:0.4
;HEIGHT:0.2
;BEFORE_LAYER_CHANGE
;0.4
G92 E0

G1 Z.4 F15000
;AFTER_LAYER_CHANGE
;0.4
M140 S115 ; set bed temperature
G1 X140.406 Y122.285
M204 S4000
;TYPE:Perimeter
;WIDTH:0.441485
G1 F900
G1 X140.735 Y122.554 E.01406
G1 X141.022 Y122.905 E.01503
G1 X140.406 Y122.905 E.02039
G1 X140.406 Y122.345 E.01856
M204 S4500
G1 X141.681 Y123.444 F15000
M204 S4000
;TYPE:External perimeter
;WIDTH:0.446189
G1 F900
G1 X141.703 Y123.638 E.00656
;WIDTH:0.485224
G1 X141.724 Y123.832 E.00719
G1 X141.723 Y124.351 E.01907
;WIDTH:0.484028
G1 X141.698 Y124.55 E.00735
;WIDTH:0.447609
G1 X141.673 Y124.749 E.00675
M204 S4500
G1 E-.75 F2400
G1 Z.7 F15000
G1 X140.183 Y121.726
G1 Z.4
G1 E.75 F1800
M204 S4000
;WIDTH:0.419999
G1 F900
G1 X140.656 Y121.979 E.01683
G1 X141.075 Y122.334 E.01721
G1 X141.384 Y122.741 E.01604
G1 X141.589 Y123.16 E.01462
;WIDTH:0.41708
G1 X141.681 Y123.444 E.00927
;WIDTH:0.412968
G1 X141.585 Y123.316 E.00492
;WIDTH:0.419999
G1 X141.111 Y123.293 E.01489
G1 X140.018 Y123.293 E.03425
G1 X140.017 Y121.825 E.04601
;WIDTH:0.417234
G1 X139.879 Y121.633 E.00737
G1 X140.125 Y121.708 E.00802
M204 S4500
G1 X140.33 Y122.098 F15000
G1 E-.75 F2400
G1 Z.7 F15000
G1 X141.022 Y125.255
G1 Z.4
G1 E.75 F1800
M204 S4000
;TYPE:Perimeter
;WIDTH:0.441116
G1 F900
G1 X140.793 Y125.556 E.01255
G1 X140.406 Y125.877 E.01662
G1 X140.406 Y125.255 E.02059
G1 X140.962 Y125.255 E.01841
M204 S4500
G1 X139.909 Y126.517 F15000
M204 S4000
;TYPE:External perimeter
;WIDTH:0.437498
G1 F900
G1 X139.774 Y126.54 E.0045
;WIDTH:0.465576
G1 X139.638 Y126.563 E.00482
;WIDTH:0.494968
G1 X139.096 Y126.578 E.0204
G1 X138.824 Y126.551 E.01026
;WIDTH:0.459522
G1 X138.553 Y126.524 E.00945
M204 S4500
G1 E-.75 F2400
G1 Z.7 F15000
G1 X141.638 Y124.895
G1 Z.4
G1 E.75 F1800
M204 S4000
;WIDTH:0.419999
G1 F900
G1 X141.407 Y125.389 E.01709
G1 X141.075 Y125.826 E.01719
G1 X140.636 Y126.193 E.01795
G1 X140.183 Y126.434 E.0161
;WIDTH:0.417025
G1 X139.909 Y126.517 E.0089
;WIDTH:0.416452
G1 X140.017 Y126.351 E.00614
;WIDTH:0.419999
G1 X140.018 Y124.867 E.04654
G1 X141.586 Y124.845 E.04915
;WIDTH:0.414453
G1 X141.673 Y124.749 E.00401
G1 X141.652 Y124.837 E.00281
M204 S4500
G1 X141.287 Y125.087 F15000
G1 E-.75 F2400
G1 Z.7 F15000
G1 X138.058 Y125.867
G1 Z.4
G1 E.75 F1800
M204 S4000
;TYPE:Perimeter
;WIDTH:0.439122
G1 F900
G1 X137.83 Y125.708 E.00915
G1 X137.443 Y125.254 E.01966
G1 X138.058 Y125.254 E.02025
G1 X138.058 Y125.807 E.01822
M204 S4500
G1 X136.797 Y124.767 F15000
M204 S4000
;TYPE:External perimeter
;WIDTH:0.456605
G1 F900
G1 X136.764 Y124.424 E.01187
;WIDTH:0.498624
G1 X136.732 Y124.08 E.01308
G1 X136.747 Y123.809 E.0103
;WIDTH:0.469186
G1 X136.762 Y123.537 E.00964
;WIDTH:0.439748
G1 X136.786 Y123.422 E.00389
M204 S4500
G1 X136.938 Y125.164 F15000
M204 S4000
;WIDTH:0.419999
G1 F900
G1 X136.797 Y124.767 E.01321
;WIDTH:0.417982
G1 X136.96 Y124.866 E.00595
;WIDTH:0.419999
G1 X138.444 Y124.867 E.04654
G1 X138.444 Y125.617 E.02353
;WIDTH:0.421398
G1 X138.444 Y126.351 E.0231
;WIDTH:0.424076
G1 X138.553 Y126.524 E.00648
G1 X138.042 Y126.323 E.01739
;WIDTH:0.419999
G1 X137.588 Y126.015 E.01721
G1 X137.21 Y125.616 E.01722
G1 X136.969 Y125.216 E.01466
M204 S4500
G1 X137.165 Y124.835 F15000
G1 X137.443 Y122.906
M204 S4000
;TYPE:Perimeter
;WIDTH:0.439125
G1 F900
G1 X137.716 Y122.572 E.01422
G1 X138.058 Y122.293 E.01453
G1 X138.058 Y122.906 E.02019
G1 X137.503 Y122.906 E.01829
M204 S4500
G1 X138.532 Y121.645 F15000
M204 S4000
;TYPE:External perimeter
;WIDTH:0.460815
G1 F900
G1 X138.814 Y121.614 E.00985
;WIDTH:0.494956
G1 X139.096 Y121.583 E.01066
G1 X139.638 Y121.597 E.0204
;WIDTH:0.465574
G1 X139.759 Y121.615 E.00427
;WIDTH:0.43612
G1 X139.879 Y121.633 E.00397
M204 S4500
G1 E-.75 F2400
G1 Z.7 F15000
G1 X136.938 Y122.993
G1 Z.4
G1 E.75 F1800
M204 S4000
;WIDTH:0.419999
G1 F900
G1 X137.21 Y122.544 E.01648
G1 X137.588 Y122.145 E.01722
G1 X138.042 Y121.837 E.01721
;WIDTH:0.426674
G1 X138.532 Y121.645 E.01679
G1 X138.443 Y121.809 E.00594
;WIDTH:0.422652
G1 X138.444 Y122.08 E.00857
